X: 27842
T: Mother Redcap's
R: jig
M: 6/8
K: Adorian
eaa a^ga|bge dB^A|BGG DGG|B^AB AB/c/d|
e2 a ae/g/a|bge dB^A|BGE DEG|AcB A2:|
ee/e/e deB|ee/e/g deB|dG/A/B G/A/BE|DGB ABd|
e2 e deB|e2 g d>B^A|BGE DEG|A/B/cB A2:|

